lib/brands/icons/igtv.svg

<svg xmlns="http://www.w3.org/2000/svg" fill="none" aria-hidden="true" viewBox="0 0 48 48"><g id="igtv-Icon"><g id="igtv"><path fill="url(#paint0_angular_94_16682)" d="M25.8129 23.9496C25.8129 23.374 25.5539 22.8308 25.1112 22.478C24.6684 22.1252 24.0918 22.0026 23.5491 22.1457L13.9664 24.6732C12.9966 24.929 12.4123 25.944 12.6613 26.9402C12.9103 27.9365 13.8983 28.5368 14.8681 28.281L22.187 26.3505V28.7386C22.187 29.3183 22.4498 29.8649 22.8979 30.2173C23.346 30.5697 23.9282 30.6877 24.473 30.5364L34.0557 27.8759C35.0223 27.6075 35.5941 26.585 35.3329 25.5921C35.0716 24.5992 34.0763 24.0118 33.1097 24.2801L25.8129 26.306V23.9496Z"/><path fill="url(#paint1_angular_94_16682)" fill-rule="evenodd" d="M18.3747 2.37655C19.1736 1.7565 20.3105 1.91912 20.9141 2.73978L23.9114 6.81493L27.1167 2.69907C27.7422 1.89589 28.8831 1.76567 29.6649 2.40821C30.4468 3.05075 30.5735 4.22273 29.9481 5.02591L27.2282 8.51848C32.2238 8.51978 34.7905 8.55645 36.7677 9.59136C38.5708 10.5351 40.0368 12.0411 40.9555 13.8934C42 15.9991 42 18.7557 42 24.2689V29.7496C42 35.2627 42 38.0193 40.9555 40.1251C40.0368 41.9773 38.5708 43.4833 36.7677 44.4271C34.7179 45.5 32.0345 45.5 26.6676 45.5H21.3324C15.9655 45.5 13.2821 45.5 11.2323 44.4271C9.42916 43.4833 7.96318 41.9773 7.04446 40.1251C6 38.0193 6 35.2627 6 29.7496V24.2689C6 18.7557 6 15.9991 7.04446 13.8934C7.96318 12.0411 9.42916 10.5351 11.2323 9.59136C13.1893 8.567 15.7239 8.52063 20.6199 8.51853L18.0211 4.98519C17.4175 4.16453 17.5758 2.99661 18.3747 2.37655ZM26.6676 12.2432H21.3324C18.5891 12.2432 16.7498 12.2461 15.3337 12.3649C13.96 12.4802 13.307 12.6858 12.8784 12.9102C11.7575 13.4968 10.8463 14.433 10.2752 15.5844C10.0568 16.0246 9.85665 16.6955 9.74441 18.1066C9.62872 19.5613 9.6259 21.4508 9.6259 24.2689V29.7496C9.6259 32.5676 9.62872 34.4571 9.74441 35.9118C9.85665 37.323 10.0568 37.9938 10.2752 38.4341C10.8463 39.5855 11.7575 40.5216 12.8784 41.1083C13.307 41.3326 13.96 41.5382 15.3337 41.6535C16.7498 41.7723 18.5891 41.7752 21.3324 41.7752H26.6676C29.4109 41.7752 31.2502 41.7723 32.6663 41.6535C34.04 41.5382 34.693 41.3326 35.1216 41.1083C36.2425 40.5216 37.1537 39.5855 37.7248 38.4341C37.9432 37.9938 38.1433 37.323 38.2556 35.9118C38.3713 34.4571 38.3741 32.5676 38.3741 29.7496V24.2689C38.3741 21.4508 38.3713 19.5613 38.2556 18.1066C38.1433 16.6955 37.9432 16.0246 37.7248 15.5844C37.1537 14.433 36.2425 13.4968 35.1216 12.9102C34.693 12.6858 34.04 12.4802 32.6663 12.3649C31.2502 12.2461 29.4109 12.2432 26.6676 12.2432Z" clip-rule="evenodd"/></g></g><defs><radialGradient id="paint0_angular_94_16682" cx="0" cy="0" r="1" gradientTransform="rotate(-49.34 37.03 -16.849) scale(26.8304 22.7256)" gradientUnits="userSpaceOnUse"><stop offset="0.0673096" stop-color="#FB218B"/><stop offset="0.279546" stop-color="#FB372B"/><stop offset="0.490204" stop-color="#FC6822"/><stop offset="0.75064" stop-color="#FDB630"/></radialGradient><radialGradient id="paint1_angular_94_16682" cx="0" cy="0" r="1" gradientTransform="rotate(-49.34 37.03 -16.849) scale(26.8304 22.7256)" gradientUnits="userSpaceOnUse"><stop offset="0.0673096" stop-color="#FB218B"/><stop offset="0.279546" stop-color="#FB372B"/><stop offset="0.490204" stop-color="#FC6822"/><stop offset="0.75064" stop-color="#FDB630"/></radialGradient></defs></svg>

<svg xmlns="http://www.w3.org/2000/svg" fill="none" aria-hidden="true" viewBox="0 0 48 48"><path fill="url(#a)" d="M25.813 23.95c0-.576-.26-1.12-.702-1.472a1.776 1.776 0 0 0-1.562-.332l-9.583 2.527c-.97.256-1.554 1.271-1.305 2.267.25.996 1.237 1.597 2.207 1.341l7.319-1.93v2.388c0 .58.263 1.126.71 1.478a1.78 1.78 0 0 0 1.576.32l9.583-2.661c.966-.268 1.538-1.291 1.277-2.284-.261-.993-1.257-1.58-2.223-1.312l-7.297 2.026V23.95Z"/><path fill="url(#b)" fill-rule="evenodd" d="M18.375 2.377a1.781 1.781 0 0 1 2.54.363l2.996 4.075 3.206-4.116a1.78 1.78 0 0 1 2.548-.29c.782.642.909 1.814.283 2.617l-2.72 3.492c4.996.002 7.563.038 9.54 1.073a9.717 9.717 0 0 1 4.188 4.302C42 16 42 18.756 42 24.27v5.48c0 5.514 0 8.27-1.044 10.376a9.718 9.718 0 0 1-4.188 4.302c-2.05 1.073-4.733 1.073-10.1 1.073h-5.336c-5.367 0-8.05 0-10.1-1.073a9.718 9.718 0 0 1-4.188-4.302C6 38.02 6 35.263 6 29.75v-5.481c0-5.513 0-8.27 1.044-10.376a9.717 9.717 0 0 1 4.188-4.302c1.957-1.024 4.492-1.07 9.388-1.072l-2.6-3.534a1.896 1.896 0 0 1 .354-2.608Zm8.293 9.866h-5.336c-2.743 0-4.582.003-5.998.122-1.374.115-2.027.32-2.456.545a6.04 6.04 0 0 0-2.603 2.674c-.218.44-.418 1.111-.53 2.523-.116 1.454-.12 3.344-.12 6.162v5.48c0 2.819.004 4.708.12 6.163.112 1.411.312 2.082.53 2.522a6.04 6.04 0 0 0 2.603 2.674c.429.225 1.082.43 2.456.546 1.416.118 3.255.121 5.998.121h5.336c2.743 0 4.582-.003 5.998-.121 1.374-.116 2.027-.321 2.456-.546a6.04 6.04 0 0 0 2.603-2.674c.218-.44.418-1.111.53-2.522.116-1.455.12-3.344.12-6.162v-5.481c0-2.818-.004-4.708-.12-6.162-.112-1.412-.312-2.082-.53-2.523a6.04 6.04 0 0 0-2.603-2.674c-.429-.224-1.082-.43-2.456-.545-1.416-.119-3.255-.122-5.998-.122Z" clip-rule="evenodd"/><defs><radialGradient id="a" cx="0" cy="0" r="1" gradientTransform="rotate(-49.34 37.03 -16.849) scale(26.8304 22.7256)" gradientUnits="userSpaceOnUse"><stop offset=".067" stop-color="#FB218B"/><stop offset=".28" stop-color="#FB372B"/><stop offset=".49" stop-color="#FC6822"/><stop offset=".751" stop-color="#FDB630"/></radialGradient><radialGradient id="b" cx="0" cy="0" r="1" gradientTransform="rotate(-49.34 37.03 -16.849) scale(26.8304 22.7256)" gradientUnits="userSpaceOnUse"><stop offset=".067" stop-color="#FB218B"/><stop offset=".28" stop-color="#FB372B"/><stop offset=".49" stop-color="#FC6822"/><stop offset=".751" stop-color="#FDB630"/></radialGradient></defs></svg>
